build/img/icons/tag.svg

<svg width="36" height="36" viewBox="0 0 36 36" fill="none" xmlns="http://www.w3.org/2000/svg">
<path d="M16.1651 0.5L32.6634 2.85833L35.0201 19.3583L19.7001 34.6783C19.3876 34.9908 18.9637 35.1663 18.5218 35.1663C18.0798 35.1663 17.656 34.9908 17.3434 34.6783L0.843446 18.1783C0.530994 17.8658 0.355469 17.4419 0.355469 17C0.355469 16.5581 0.530994 16.1342 0.843446 15.8217L16.1651 0.5ZM17.3434 4.03667L4.37845 17L18.5218 31.1417L31.4851 18.1783L29.7184 5.80333L17.3434 4.03667ZM20.8768 14.6433C20.2515 14.0179 19.9004 13.1696 19.9005 12.2852C19.9006 11.8473 19.9869 11.4137 20.1546 11.0092C20.3222 10.6047 20.5679 10.2371 20.8776 9.9275C21.1873 9.61791 21.555 9.37235 21.9596 9.20484C22.3642 9.03733 22.7978 8.95116 23.2357 8.95123C24.1201 8.95139 24.9682 9.30286 25.5934 9.92833C26.2187 10.5538 26.5699 11.402 26.5697 12.2864C26.5696 13.1708 26.2181 14.0189 25.5926 14.6442C24.9671 15.2694 24.1189 15.6206 23.2345 15.6204C22.3501 15.6203 21.502 15.2688 20.8768 14.6433Z" fill="#5CC773"/>
</svg>

<svg width="36" height="36" fill="none" xmlns="http://www.w3.org/2000/svg">
    <path d="m16.165.5 16.498 2.358 2.357 16.5-15.32 15.32a1.666 1.666 0 0 1-2.357 0l-16.5-16.5a1.667 1.667 0 0 1 0-2.356L16.165.5zm1.178 3.537L4.378 17l14.144 14.142 12.963-12.964-1.767-12.375-12.375-1.766zm3.534 10.606a3.335 3.335 0 1 1 4.716-4.715 3.335 3.335 0 0 1-4.716 4.715z" fill="#5CC773"/>
</svg>
